svgs/sharp-regular/gas-pump-slash.svg

<svg xmlns="http://www.w3.org/2000/svg" viewBox="0 0 640 512"><!--! Font Awesome Pro 6.6.0 by @fontawesome - https://fontawesome.com License - https://fontawesome.com/license (Commercial License) Copyright 2024 Fonticons, Inc. --><path d="M144 48l0 41L336 238.1 336 48 144 48zM96 51.8L96 48 96 0l48 0L336 0l48 0 0 48 0 227.4L526 385.6c1.3-2.9 2-6.2 2-9.6l0-154c-27.6-7.1-48-32.2-48-62l0-62.1L447 65l-17-17L464 14.1l17 17 88 88 7 7 0 9.9 0 240c0 14.5-4.3 28-11.7 39.3l56.6 43.9 19 14.7-29.4 37.9-19-14.7L19 52.7 0 38 29.4 .1l19 14.7L96 51.8zM144 464l192 0 0-103.3 48 37.8 0 65.5 32 0 0 48-32 0-48 0-192 0-48 0-32 0 0-48 32 0 0-292.4 48 37.8L144 464z"/></svg>

<svg xmlns="http://www.w3.org/2000/svg" viewBox="0 0 640 512"><!--! Font Awesome Pro 6.4.2 by @fontawesome - https://fontawesome.com License - https://fontawesome.com/license (Commercial License) Copyright 2023 Fonticons, Inc. --><path d="M144 48V89L336 238.1V48H144zM96 51.8V48 0h48H336h48V48 275.4L526 385.6c1.3-2.9 2-6.2 2-9.6V222c-27.6-7.1-48-32.2-48-62V97.9L447 65l-17-17L464 14.1l17 17 88 88 7 7V136 376c0 14.5-4.3 28-11.7 39.3l56.6 43.9 19 14.7-29.4 37.9-19-14.7L19 52.7 0 38 29.4 .1l19 14.7L96 51.8zM144 464H336V360.7l48 37.8V464l32 0v48H384 336 144 96 64V464l32 0V171.6l48 37.8V464z"/></svg>
